assets/features/channel/east-asia/mercari.svg

<svg width="80" height="80" viewBox="0 0 80 80" fill="none" xmlns="http://www.w3.org/2000/svg">
<rect x="0.5" y="0.5" width="79" height="79" rx="7.5" fill="white"/>
<rect x="0.5" y="0.5" width="79" height="79" rx="7.5" stroke="#EEEEEE"/>
<path fill-rule="evenodd" clip-rule="evenodd" d="M57.4204 30.9235V49.3471C57.4166 49.9282 57.2502 50.4966 56.9401 50.9881C56.63 51.4796 56.1885 51.8745 55.6657 52.1282L40.0482 59.6644C39.6269 59.8679 39.165 59.9736 38.6971 59.9736C38.2291 59.9736 37.7672 59.8679 37.3459 59.6644L28.1158 55.1988L21.7548 52.0843C21.2293 51.834 20.7856 51.4398 20.4751 50.9476C20.1645 50.4554 19.9998 49.8852 20 49.3032V30.8796C20.0037 30.3019 20.1703 29.7369 20.4807 29.2496C20.7911 28.7623 21.2327 28.3724 21.7548 28.1248L37.3634 20.3255C37.7942 20.1114 38.2687 20 38.7497 20C39.2307 20 39.7052 20.1114 40.136 20.3255L55.7183 28.1599C56.2299 28.418 56.6599 28.813 56.9604 29.3009C57.2609 29.7888 57.4202 30.3505 57.4204 30.9235Z" fill="#FF0211"/>
<path d="M51.6122 39.7494C56.2446 39.7494 60 35.9943 60 31.3622C60 26.7302 56.2446 22.9751 51.6122 22.9751C46.9797 22.9751 43.2244 26.7302 43.2244 31.3622C43.2244 35.9943 46.9797 39.7494 51.6122 39.7494Z" fill="#4DC9FF"/>
<path d="M25.1502 46.7151L23.5095 45.9079V41.0564C23.5095 39.6351 24.3079 38.2139 25.9574 38.3806C26.6337 38.496 27.2711 38.7766 27.8129 39.1975C28.3547 39.6183 28.7843 40.1665 29.0634 40.7932C29.3098 40.5619 29.6082 40.3934 29.9335 40.3018C30.2588 40.2101 30.6013 40.1981 30.9322 40.2668C31.8096 40.3808 34.9594 41.5652 34.9594 45.8728V51.5842L33.1608 50.7068V45.3377C33.2162 44.6465 33.0178 43.9588 32.6028 43.4033C32.1877 42.8478 31.5845 42.4626 30.9059 42.3197C30.3707 42.2671 29.9057 42.6969 29.8969 43.6181C29.8881 44.5393 29.8969 49.0663 29.8969 49.0663L28.2474 48.2591V43.1795C28.2474 40.9423 26.7997 40.2492 26.168 40.1791C25.8083 40.1791 25.1502 40.3633 25.1502 41.5126V46.7151Z" fill="white"/>
</svg>

<svg xmlns="http://www.w3.org/2000/svg" width="80" height="80" fill="none" viewBox="0 0 80 80"><rect width="79" height="79" x=".5" y=".5" fill="#fff" rx="7.5"/><rect width="79" height="79" x=".5" y=".5" stroke="#eee" rx="7.5"/><path fill="#ff0211" fill-rule="evenodd" d="M57.42 30.924v18.423a3.11 3.11 0 0 1-1.754 2.781l-15.618 7.536a3.1 3.1 0 0 1-2.702 0l-9.23-4.465-6.361-3.115A3.08 3.08 0 0 1 20 49.304V30.88a3.07 3.07 0 0 1 1.755-2.755l15.608-7.8a3.12 3.12 0 0 1 2.773 0l15.582 7.835a3.1 3.1 0 0 1 1.702 2.764" clip-rule="evenodd"/><path fill="#4dc9ff" d="M51.612 39.75a8.388 8.388 0 1 0-8.388-8.388 8.387 8.387 0 0 0 8.388 8.387"/><path fill="#fff" d="m25.15 46.715-1.64-.807v-4.852c0-1.42.798-2.842 2.447-2.675a4.17 4.17 0 0 1 3.106 2.412 2.1 2.1 0 0 1 1.87-.526c.877.114 4.026 1.298 4.026 5.606v5.711l-1.798-.877v-5.37a2.85 2.85 0 0 0-2.255-3.017c-.535-.053-1 .377-1.01 1.298-.008.921 0 5.448 0 5.448l-1.649-.807v-5.08c0-2.237-1.447-2.93-2.079-3-.36 0-1.018.184-1.018 1.334z"/></svg>
